icons/1_Primary/Register.ly.svg

<svg width="1024" height="1024" viewBox="0 0 1024 1024" fill="none" xmlns="http://www.w3.org/2000/svg">
<g clip-path="url(#clip0_2_3315)">
<path d="M512 1024C794.77 1024 1024 794.77 1024 512C1024 229.23 794.77 0 512 0C229.23 0 0 229.23 0 512C0 794.77 229.23 1024 512 1024Z" fill="#73ADA4"/>
<path d="M775 413H798.15V560.83H775V413ZM881.51 467.31C873.14 490.23 865.4 513.39 856.58 536.13C847.96 513.21 839.68 490.19 831.06 467.27C822.71 467.32 814.38 467.27 806.06 467.27C818.7 498.47 832.06 529.36 844.29 560.73C841.491 568.175 837.008 574.871 831.191 580.296C825.374 585.721 818.382 589.726 810.76 592C812.61 598.36 814.59 604.66 816.53 611C832.22 608.63 845.64 598 854.31 585.06C864.53 569.78 870.98 552.42 877.88 535.51C887.293 512.777 896.667 490.05 906 467.33C897.83 467.35 889.67 467.33 881.53 467.35L881.51 467.31ZM209.25 502.31C228.73 495.42 238.88 469.8 229.07 451.55C222.89 439.85 210.52 432.69 197.96 429.77C178.14 425.66 157.51 428.01 137.96 432.64V457.64C155.2 451.51 174.23 446.17 192.43 450.71C206.57 454.36 210.18 474.53 199.43 483.78C190.01 492.17 176.62 489.69 165.1 490.01V464.14C155.878 465.868 146.814 468.353 138 471.57V560.39H165.14C165.173 543.917 165.173 527.453 165.14 511C172.92 511.07 181.14 510.13 188.47 513.47C194.84 516.32 198.87 522.53 201.31 528.84C205.16 539.02 207.51 549.71 209.52 560.39H237.64C234.43 548.99 230.94 537.69 227.72 526.29C224.87 516.42 219.21 506.4 209.28 502.3L209.25 502.31ZM597.83 485.61V467.36H576.48V440.67C568.02 442.82 559.48 444.41 551.02 446.67C551.09 453.58 551.02 460.49 551.02 467.38H538.57V485.63H551.02C551.09 500 550.93 514.39 551.09 528.76C551.54 538.29 552.98 549.34 561.22 555.47C571.58 562.75 585.13 561.36 596.9 559.03V539.94C591.67 540.35 585.45 541.29 581.2 537.45C576.78 533.57 576.62 527.18 576.43 521.73V485.64C583.61 485.6 590.73 485.62 597.85 485.6L597.83 485.61ZM316.91 479.32C324.28 490.79 324.07 505 323.09 518.1H260.24C259.97 528.18 265.85 538.58 275.84 541.59C289.76 545.81 304.51 541.93 318.27 538.87V557.57C299.72 561.68 279.38 565.4 261.15 558.07C248.29 553.07 239.91 540.42 237.68 527.16C235.1 511.31 236.68 493.92 245.8 480.3C261 456.58 301.42 455.53 316.93 479.32H316.91ZM304.2 501.15C303.63 494.31 301.83 486.58 295.56 482.74C287.48 478.18 276.51 478.29 268.99 483.97C263.65 488.05 261.67 494.8 260.55 501.13C275.12 501.22 289.67 501.18 304.22 501.15H304.2ZM727.37 497.09C714.14 514.43 708.37 537.38 690.57 551.17C676.88 562.39 658.11 563.12 641.27 561.76C630.57 561.07 619.62 557.34 612.27 549.24C602.67 539.14 600.02 524.49 600.54 511.01C600.99 496.28 606.22 480.81 617.97 471.3C637.63 455.51 673.26 459.78 683.6 484.51C688.35 495.02 687.6 506.86 686.89 518.07C665.89 518.14 644.89 518.07 623.89 518.12C624.55 525.69 626.89 533.97 633.51 538.44C643.71 545.37 657.16 544.1 668.57 541.44C682.78 535.62 696.93 522.16 695.35 505.56C695.28 492.81 695.3 480.04 695.35 467.3H718.03C718.03 471.18 718.03 475.05 717.96 478.93C725.26 467.25 740.5 466.93 752.75 466.8V489.52C743.91 489.27 733.27 489.18 727.39 497.09H727.37ZM624.53 501.2C638.97 501.167 653.41 501.167 667.85 501.2C667.85 495.32 666.25 489.2 662.22 484.82C654.67 478.45 642.9 477.82 634.48 482.82C628.07 486.62 625.58 494.2 624.53 501.2ZM401.94 466.91H424.23V555.53C423.91 567.48 422.7 580.89 413.78 589.81C403.2 599.39 388.39 602.17 374.57 602.61C362.09 602.61 349.3 601.08 337.87 595.77C339.69 588.86 341.63 581.99 343.34 575.04C355.34 581.04 369.25 583.44 382.44 580.86C388.8 579.6 394.55 575.16 396.7 568.95C398.98 562.42 398.7 555.35 399 548.51C383.76 565.66 353.1 564.2 339.19 546.07C328.91 533 327.29 514.93 331 499.17C334.65 483.91 346.35 470.48 361.72 466.41C375.72 462.97 392.72 465.27 402.17 477.18C402 473.76 402 470.34 401.94 466.91ZM398.08 502.09C396.35 488.49 380.36 481.09 368.08 485.51C364.856 486.305 361.88 487.891 359.422 490.124C356.964 492.357 355.1 495.167 354 498.3C351.15 506.03 351.2 514.56 352.31 522.62C353.63 531.22 359.82 539.45 368.8 540.78C378.8 542.29 391.54 539.6 396.4 529.78C399.51 520.95 398.48 511.28 398.07 502.09H398.08ZM435.85 466.91C435.817 498.243 435.817 529.553 435.85 560.84H461.24V466.93C452.74 466.89 444.28 466.91 435.84 466.91H435.85ZM518.06 506C511.65 503.13 504.17 502 498.9 497C494.68 493 496.98 485.27 502.28 483.45C511.17 479.96 520.76 483.45 529.22 486.58C530.7 480.95 532.22 475.33 533.6 469.7C517 463.79 496.19 462.35 481.6 473.85C471.84 481.54 468.42 497.05 475.9 507.41C482.08 516.15 492.67 519.75 502.36 523.1C507.11 524.81 513.24 528.03 512.85 533.94C513.31 538.94 508.63 542.63 504.05 543.23C493.79 545.14 483.54 541.45 474.19 537.53C472.73 543.37 471.263 549.21 469.79 555.05C479.49 559.45 490.3 560.96 500.9 560.75C511.25 560.3 522.34 558.13 530.12 550.75C537.69 543.91 539.47 532.43 536.55 522.99C533.91 514.63 526 509.14 518.06 506ZM722.4 523.73C715.88 537.73 708.8 552.73 694.87 560.86C704.08 560.81 713.28 560.86 722.5 560.86C722.44 548.46 722.6 536.08 722.4 523.73ZM748.63 534.3C746.001 534.3 743.432 535.079 741.246 536.54C739.061 538 737.357 540.076 736.352 542.504C735.346 544.933 735.082 547.605 735.595 550.183C736.108 552.761 737.374 555.129 739.232 556.987C741.091 558.846 743.459 560.112 746.037 560.625C748.615 561.137 751.287 560.874 753.716 559.868C756.144 558.862 758.22 557.159 759.68 554.974C761.141 552.788 761.92 550.219 761.92 547.59C761.92 544.065 760.52 540.685 758.027 538.193C755.535 535.7 752.155 534.3 748.63 534.3ZM448.51 426.63C445.881 426.63 443.312 427.409 441.126 428.87C438.941 430.33 437.237 432.406 436.232 434.834C435.226 437.263 434.963 439.935 435.475 442.513C435.988 445.091 437.254 447.459 439.112 449.317C440.971 451.176 443.339 452.442 445.917 452.955C448.495 453.467 451.167 453.204 453.596 452.198C456.024 451.192 458.1 449.489 459.56 447.304C461.021 445.118 461.8 442.549 461.8 439.92C461.8 436.395 460.4 433.015 457.907 430.523C455.415 428.03 452.035 426.63 448.51 426.63Z" fill="white"/>
</g>
<defs>
<clipPath id="clip0_2_3315">
<rect width="1024" height="1024" fill="white"/>
</clipPath>
</defs>
</svg>

<svg xmlns="http://www.w3.org/2000/svg" width="1024" height="1024" fill="none">
   <g clip-path="url(#a)">
      <path fill="#73ADA4" d="M512 1024c282.77 0 512-229.23 512-512S794.77 0 512 0 0 229.23 0 512s229.23 512 512 512Z"/>
      <path fill="#fff" d="M775 413h23.15v147.83H775V413Zm106.51 54.31c-8.37 22.92-16.11 46.08-24.93 68.82-8.62-22.92-16.9-45.94-25.52-68.86-8.35.05-16.68 0-25 0 12.64 31.2 26 62.09 38.23 93.46A51.568 51.568 0 0 1 810.76 592c1.85 6.36 3.83 12.66 5.77 19 15.69-2.37 29.11-13 37.78-25.94 10.22-15.28 16.67-32.64 23.57-49.55 9.413-22.733 18.787-45.46 28.12-68.18-8.17.02-16.33 0-24.47.02l-.02-.04Zm-672.26 35c19.48-6.89 29.63-32.51 19.82-50.76-6.18-11.7-18.55-18.86-31.11-21.78-19.82-4.11-40.45-1.76-60 2.87v25c17.24-6.13 36.27-11.47 54.47-6.93 14.14 3.65 17.75 23.82 7 33.07-9.42 8.39-22.81 5.91-34.33 6.23v-25.87a170.772 170.772 0 0 0-27.1 7.43v88.82h27.14c.033-16.473.033-32.937 0-49.39 7.78.07 16-.87 23.33 2.47 6.37 2.85 10.4 9.06 12.84 15.37 3.85 10.18 6.2 20.87 8.21 31.55h28.12c-3.21-11.4-6.7-22.7-9.92-34.1-2.85-9.87-8.51-19.89-18.44-23.99l-.03.01Zm388.58-16.7v-18.25h-21.35v-26.69c-8.46 2.15-17 3.74-25.46 6 .07 6.91 0 13.82 0 20.71h-12.45v18.25h12.45c.07 14.37-.09 28.76.07 43.13.45 9.53 1.89 20.58 10.13 26.71 10.36 7.28 23.91 5.89 35.68 3.56v-19.09c-5.23.41-11.45 1.35-15.7-2.49-4.42-3.88-4.58-10.27-4.77-15.72v-36.09c7.18-.04 14.3-.02 21.42-.04l-.02.01Zm-280.92-6.29c7.37 11.47 7.16 25.68 6.18 38.78h-62.85c-.27 10.08 5.61 20.48 15.6 23.49 13.92 4.22 28.67.34 42.43-2.72v18.7c-18.55 4.11-38.89 7.83-57.12.5-12.86-5-21.24-17.65-23.47-30.91-2.58-15.85-1-33.24 8.12-46.86 15.2-23.72 55.62-24.77 71.13-.98h-.02Zm-12.71 21.83c-.57-6.84-2.37-14.57-8.64-18.41-8.08-4.56-19.05-4.45-26.57 1.23-5.34 4.08-7.32 10.83-8.44 17.16 14.57.09 29.12.05 43.67.02h-.02Zm423.17-4.06c-13.23 17.34-19 40.29-36.8 54.08-13.69 11.22-32.46 11.95-49.3 10.59-10.7-.69-21.65-4.42-29-12.52-9.6-10.1-12.25-24.75-11.73-38.23.45-14.73 5.68-30.2 17.43-39.71 19.66-15.79 55.29-11.52 65.63 13.21 4.75 10.51 4 22.35 3.29 33.56-21 .07-42 0-63 .05.66 7.57 3 15.85 9.62 20.32 10.2 6.93 23.65 5.66 35.06 3 14.21-5.82 28.36-19.28 26.78-35.88-.07-12.75-.05-25.52 0-38.26h22.68c0 3.88 0 7.75-.07 11.63 7.3-11.68 22.54-12 34.79-12.13v22.72c-8.84-.25-19.48-.34-25.36 7.57h-.02Zm-102.84 4.11c14.44-.033 28.88-.033 43.32 0 0-5.88-1.6-12-5.63-16.38-7.55-6.37-19.32-7-27.74-2-6.41 3.8-8.9 11.38-9.95 18.38Zm-222.59-34.29h22.29v88.62c-.32 11.95-1.53 25.36-10.45 34.28-10.58 9.58-25.39 12.36-39.21 12.8-12.48 0-25.27-1.53-36.7-6.84 1.82-6.91 3.76-13.78 5.47-20.73 12 6 25.91 8.4 39.1 5.82 6.36-1.26 12.11-5.7 14.26-11.91 2.28-6.53 2-13.6 2.3-20.44-15.24 17.15-45.9 15.69-59.81-2.44-10.28-13.07-11.9-31.14-8.19-46.9 3.65-15.26 15.35-28.69 30.72-32.76 14-3.44 31-1.14 40.45 10.77-.17-3.42-.17-6.84-.23-10.27Zm-3.86 35.18c-1.73-13.6-17.72-21-30-16.58A19.997 19.997 0 0 0 354 498.3c-2.85 7.73-2.8 16.26-1.69 24.32 1.32 8.6 7.51 16.83 16.49 18.16 10 1.51 22.74-1.18 27.6-11 3.11-8.83 2.08-18.5 1.67-27.69h.01Zm37.77-35.18a44559.83 44559.83 0 0 0 0 93.93h25.39v-93.91c-8.5-.04-16.96-.02-25.4-.02h.01ZM518.06 506c-6.41-2.87-13.89-4-19.16-9-4.22-4-1.92-11.73 3.38-13.55 8.89-3.49 18.48 0 26.94 3.13 1.48-5.63 3-11.25 4.38-16.88-16.6-5.91-37.41-7.35-52 4.15-9.76 7.69-13.18 23.2-5.7 33.56 6.18 8.74 16.77 12.34 26.46 15.69 4.75 1.71 10.88 4.93 10.49 10.84.46 5-4.22 8.69-8.8 9.29-10.26 1.91-20.51-1.78-29.86-5.7-1.46 5.84-2.927 11.68-4.4 17.52 9.7 4.4 20.51 5.91 31.11 5.7 10.35-.45 21.44-2.62 29.22-10 7.57-6.84 9.35-18.32 6.43-27.76-2.64-8.36-10.55-13.85-18.49-16.99Zm204.34 17.73c-6.52 14-13.6 29-27.53 37.13 9.21-.05 18.41 0 27.63 0-.06-12.4.1-24.78-.1-37.13Zm26.23 10.57a13.286 13.286 0 0 0-12.278 8.204 13.29 13.29 0 1 0 12.278-8.204ZM448.51 426.63a13.286 13.286 0 0 0-12.278 8.204 13.291 13.291 0 1 0 25.568 5.086c0-3.525-1.4-6.905-3.893-9.397a13.286 13.286 0 0 0-9.397-3.893Z"/>
   </g>
   <defs>
      <clipPath id="a">
         <path fill="#fff" d="M0 0h1024v1024H0z"/>
      </clipPath>
   </defs>
</svg>
